X:193
T: ES IST SCHON ALLES FERTIG
N: E1335
O: Europa, Mitteleuropa, Deutschland, Hessen, Darmstadt
R: Staende -, Soldaten -, Kriegs - Lied
M: 4/4
L: 1/16
K: G
D4 | G6A2B3AB3c | d4B4d4
e3d | c4d4B4
D4 | G6A2B3AB3c | d4B4d4
e3d | c4d4B4z4 |
G4B3AG4D4 | G4B4d4z4 |
G4B3AG4D4 | G4B4d4z4 |
G6A2B3AB3c | d4B4d4
e3d | c4d4B4

@@@ Tune index: 4877
